X:1
T:Title
%%score { ( 1 3 ) | ( 2 4 ) }
L:1/8
M:4/4
K:Bb
V:1 bass nm="Grand Piano"
V:3 bass 
V:2 bass 
V:4 bass 
V:1
 z4 z2[Q:1/4=110] [F,B,D]>[F,CE] | [B,DF]2 [A,EF]2 [B,F]2 [DB]>[FA] | [EG]2 [FG]2 [EG]2 c>B | %3
 A6 z2 |[M:3/4] F6 |[M:1/4] D>[F,CE] |[M:4/4] [B,DF]2 [A,EF]2 [B,F]2 [DB]>[FA] | %7
 [EG]2 [FG]2 [EG]2 c>e | d6 z2 |[M:7/8] B-B-B- B- B3 |[M:1/4] [B,FB]>[B,FA] | %11
[M:4/4] [B,EG]2 [Ge]2 [Ge]2 [EG]>[EG] | [DF]2 [Fd]2 [Fd]2 [Fd]>[Fd] | c2 c2 c2 c>B | %14
[M:7/8] A2 [B,=EG]2 [A,F]3 |[M:1/4][K:bass] [F,B,D]>[F,CE] | %16
[M:4/4][K:treble] [B,DF]2 [A,EF]2 [B,F]2 [DB]>[FA] | [EG]2 [FG]2 [EG]2 c>e | d6 z2 |[M:3/4] B6 |] %20
V:2
 z4 z2 B,,>B,, | B,,2 C,2 D,2 [B,,F,]>[D,B,] | [E,B,]2 [D,=B,]2 [C,C]2 z2 | %3
 z2 [F,C]>[F,C] [F,C]2 z2 |[M:3/4] z2 [B,,B,]>[B,,B,] [B,,B,]2 |[M:1/4] [B,,F,B,]>B,, | %6
[M:4/4] B,,2 C,2 D,2 [B,,F,]>[D,B,] | [E,B,]2 [D,=B,]2 [C,C]2 z2 | %8
 z2 [F,B,]>[F,B,] [F,B,]2 [F,G,E]>[F,A,E] |[M:7/8] B,2 G,>G, F,3 |[M:1/4] D,>D, | %11
[M:4/4] E,2 [E,B,]2 [E,B,]2 [E,B,]>[E,B,] | [B,,B,]2 [B,,B,]2 [B,,B,]2 [B,,B,]>[B,,B,] | %13
 [F,A,F]2 [G,B,=E]2 [A,CF]2 [B,DG]>[B,DG] |[M:7/8] [CF]2[K:bass] C,2 F,3 |[M:1/4] B,,>B,, | %16
[M:4/4] B,,2 C,2 D,2 [B,,F,]>[D,B,] | [E,B,]2 [D,=B,]2 [C,C]2 z2 | %18
 z2 [F,B,]>[F,B,] [F,B,]2 [F,G,E]>[F,A,E] |[M:3/4] z2 G,>G, F,2 |] %20
V:3
 x8 | x8 | x8 | z2 E>E E2 e>G |[M:3/4] z2 D>D D2 |[M:1/4] x2 |[M:4/4] x8 | x8 | z2 F>F F2 B>c | %9
[M:7/8] z2 E>E D3 |[M:1/4] x2 |[M:4/4] x8 | x8 | x8 |[M:7/8] x7 |[M:1/4][K:bass] x2 | %16
[M:4/4][K:treble] x8 | x8 | z2 F>F F2 B>c |[M:3/4] [B,D]2 E>E D2 |] %20
V:4
 x8 | x8 | x8 | x8 |[M:3/4] x6 |[M:1/4] x2 |[M:4/4] x8 | x8 | x8 |[M:7/8] B,,-B,,-B,,- B,,- B,,3 | %10
[M:1/4] x2 |[M:4/4] x8 | x8 | x8 |[M:7/8] x2[K:bass] x5 |[M:1/4] x2 |[M:4/4] x8 | x8 | x8 | %19
[M:3/4] B,,6 |] %20

